X: 2
T: Crossing the Brazos
C: Mike Richardson
O: Seattle, Washington
%R: reel
Z: Collected and edited 2014 by John Chambers <jc:trillian.mit.edu>
B: GEMS The Best of the Country Dance and Song Society Diamond Jubilee Music, Dance and Song Contest 1993 p.66 #2
N: The key signature really has two sharps, and the c notes in the first 6 bars are sharp.
M: C|
L: 1/8
K: Amix
% - - - - - - - - - - - - - - - - - - - - - - - - -
|:\
"Am"A2a2 g2ef | gfed edcB | "Am"A2a2 g2ef | "G"gfed "E"e4 |
"Am"A2a2 g2ef | gfed edcB | "Am"AB=cA "G"GABd |1 "E"(3=cBA BG "Am"AEF^G :|2 "E"(3=cBA BG "Am"A2 ||
|: (3ef^g |\
"Am"a2A2 A2ab | "Am"age=c "G"dBGB | "Am"Aa2a- azab | "Am"age=c "E"de3 |
"Am"az2a- azab | "Am"age=c "G"dBGB | "F"=cA=FA "Em"BAGD |1 "Am"(3EFG A2 A2 :|2 "Am"(3EFG A2 HAge=c |]
% - - - - - - - - - - - - - - - - - - - - - - - - -
